X:1
T:[ID 4-7r]
T:[ID 4-7r]
T:Bezeichnung standardisiert: Schwabisch Schwabisch
T:Urheber unbekannt Datum in der hier transkribierten schriftlichen Quelle: 1767
C:Urheber unbekannt
C:Datum in der hier transkribierten schriftlichen Quelle: 1767
L:1/8
M:3/8
K:D
V:1 treble 
V:1
 A | dfd | a2 f | gb/g/e | c/d/e/c/A | dfd | a2 f | gb/g/e/c/ | d2 :| e | fa/f/a/f/ | eg/e/g/e/ | %12
 fa/f/a/f/ | ecA | dfd | a2 f | gb/g/e/c/ | d2 :| %18

